symbols/web/30fps/materialsymbolsrounded/30fps_wght300_40px.svg

<svg xmlns="http://www.w3.org/2000/svg" height="40" width="40"><path d="M5.417 30.917q-.542 0-.938-.396-.396-.396-.396-.938 0-.583.396-.979t.938-.396h8.458q.208 0 .354-.146.146-.145.146-.354v-5.833q0-.25-.146-.375t-.354-.125H5.5q-.583 0-.979-.396T4.125 20q0-.583.396-.979t.979-.396h8.375q.208 0 .354-.125t.146-.375v-5.833q0-.209-.146-.354-.146-.146-.354-.146H5.417q-.542 0-.938-.396-.396-.396-.396-.979 0-.584.396-.959t.938-.375h8.458q1.333 0 2.271.917.937.917.937 2.292v5.25q0 1-.687 1.75-.688.75-1.604.75.916 0 1.604.708.687.708.687 1.708v5.25q0 1.375-.937 2.292-.938.917-2.271.917Zm19-2.709h8.291q.209 0 .354-.146.146-.145.146-.354V12.292q0-.209-.146-.354-.145-.146-.354-.146h-8.291q-.209 0-.355.146-.145.145-.145.354v15.416q0 .209.145.354.146.146.355.146Zm0 2.709q-1.375 0-2.292-.917-.917-.917-.917-2.292V12.292q0-1.375.917-2.292.917-.917 2.292-.917h8.291q1.375 0 2.292.917.917.917.917 2.292v15.416q0 1.375-.917 2.292-.917.917-2.292.917Z"/></svg>

<svg xmlns="http://www.w3.org/2000/svg" height="40" width="40"><path d="M5.417 30.917Q4.875 30.917 4.479 30.521Q4.083 30.125 4.083 29.583Q4.083 29 4.479 28.604Q4.875 28.208 5.417 28.208H13.875Q14.083 28.208 14.229 28.062Q14.375 27.917 14.375 27.708V21.875Q14.375 21.625 14.229 21.5Q14.083 21.375 13.875 21.375H5.5Q4.917 21.375 4.521 20.979Q4.125 20.583 4.125 20Q4.125 19.417 4.521 19.021Q4.917 18.625 5.5 18.625H13.875Q14.083 18.625 14.229 18.5Q14.375 18.375 14.375 18.125V12.292Q14.375 12.083 14.229 11.938Q14.083 11.792 13.875 11.792H5.417Q4.875 11.792 4.479 11.396Q4.083 11 4.083 10.417Q4.083 9.833 4.479 9.458Q4.875 9.083 5.417 9.083H13.875Q15.208 9.083 16.146 10Q17.083 10.917 17.083 12.292V17.542Q17.083 18.542 16.396 19.292Q15.708 20.042 14.792 20.042Q15.708 20.042 16.396 20.75Q17.083 21.458 17.083 22.458V27.708Q17.083 29.083 16.146 30Q15.208 30.917 13.875 30.917ZM24.417 28.208H32.708Q32.917 28.208 33.062 28.062Q33.208 27.917 33.208 27.708V12.292Q33.208 12.083 33.062 11.938Q32.917 11.792 32.708 11.792H24.417Q24.208 11.792 24.062 11.938Q23.917 12.083 23.917 12.292V27.708Q23.917 27.917 24.062 28.062Q24.208 28.208 24.417 28.208ZM24.417 30.917Q23.042 30.917 22.125 30Q21.208 29.083 21.208 27.708V12.292Q21.208 10.917 22.125 10Q23.042 9.083 24.417 9.083H32.708Q34.083 9.083 35 10Q35.917 10.917 35.917 12.292V27.708Q35.917 29.083 35 30Q34.083 30.917 32.708 30.917Z"/></svg>
